dist/img/partner4.svg

<svg width="231" height="40" viewBox="0 0 231 40" fill="none" xmlns="http://www.w3.org/2000/svg">
<g clip-path="url(#clip0_1281_21609)">
<mask id="mask0_1281_21609" style="mask-type:luminance" maskUnits="userSpaceOnUse" x="0" y="0" width="231" height="40">
<path d="M230.429 0H0.798828V40H230.429V0Z" fill="white"/>
</mask>
<g mask="url(#mask0_1281_21609)">
<path fill-rule="evenodd" clip-rule="evenodd" d="M0.798828 4.4381H5.00726V17.7766H8.83031C9.35816 13.9013 11.3309 10.3719 14.3497 7.90216C17.3685 5.43237 21.2081 4.20643 25.0922 4.47222C28.9762 4.738 32.615 6.47569 35.2727 9.3339C37.9302 12.1921 39.4085 15.9576 39.4085 19.869C39.4085 23.7804 37.9302 27.546 35.2727 30.4043C32.615 33.2624 28.9762 35.0001 25.0922 35.2659C21.2081 35.5317 17.3685 34.3057 14.3497 31.836C11.3309 29.3661 9.35816 25.8369 8.83031 21.9616H5.00726V35.3H0.798828V4.4381ZM24.0515 8.0128C26.3858 8.0128 28.6677 8.70825 30.6085 10.0112C32.5494 11.3142 34.0621 13.1661 34.9554 15.3329C35.8485 17.4996 36.0824 19.8837 35.627 22.184C35.1715 24.4841 34.0475 26.597 32.397 28.2553C30.7464 29.9137 28.6435 31.043 26.3541 31.5006C24.0647 31.9581 21.6917 31.7233 19.5351 30.8259C17.3785 29.9283 15.5354 28.4084 14.2385 26.4584C12.9417 24.5084 12.2495 22.2159 12.2495 19.8706C12.256 16.7277 13.5015 13.7155 15.7134 11.4931C17.9254 9.27075 20.9235 8.01935 24.0515 8.0128ZM63.1084 4.4381V8.6664H47.9117V35.3063H43.7033V4.4381H63.1084Z" fill="#383A3F"/>
<path fill-rule="evenodd" clip-rule="evenodd" d="M205.958 4.43807H210.166V27.1439L226.22 4.44427H230.431V35.3061H226.226V12.5849L210.17 35.2846H205.958V4.43807ZM146.873 4.43807L151.078 4.49073L159.954 23.0457L167.551 4.43807H171.766L161.336 29.9813C159.696 34.3583 155.106 35.3371 150.458 34.6279V30.6319C153.674 31.462 159.64 30.8394 157.036 25.7314L146.861 4.43807H146.873ZM134.396 4.43807H134.43C135.796 4.41431 137.153 4.66417 138.422 5.17306C139.692 5.68194 140.847 6.43967 141.822 7.40203C142.796 8.3644 143.57 9.51213 144.098 10.7783C144.627 12.0444 144.9 13.4036 144.9 14.7766C144.9 16.1494 144.627 17.5086 144.098 18.7747C143.57 20.0409 142.796 21.1886 141.822 22.151C140.847 23.1133 139.692 23.871 138.422 24.38C137.153 24.8889 135.796 25.1387 134.43 25.1149H126.275V35.3H122.066V4.43807H134.396ZM134.43 7.81143C136.27 7.81143 138.034 8.54573 139.335 9.85282C140.636 11.1599 141.367 12.9327 141.367 14.7811C141.367 16.6296 140.636 18.4024 139.335 19.7094C138.034 21.0166 136.27 21.7509 134.43 21.7509H126.269V7.81143H134.43ZM187.61 4.43807C190.458 4.44266 193.248 5.24143 195.671 6.74544C198.094 8.24946 200.054 10.3997 201.333 12.9566H197.183C195.727 10.9184 193.664 9.39707 191.293 8.61164C188.92 7.8262 186.361 7.81716 183.984 8.58581C181.607 9.35449 179.534 10.8612 178.063 12.8891C176.593 14.917 175.8 17.3614 175.8 19.8706C175.8 22.3797 176.593 24.8243 178.063 26.8521C179.534 28.88 181.607 30.3867 183.984 31.1554C186.361 31.924 188.92 31.915 191.293 31.1296C193.664 30.3441 195.727 28.8227 197.183 26.7846H201.333C200.107 29.2401 198.251 31.3223 195.957 32.8161C193.663 34.31 191.013 35.1613 188.281 35.282C185.55 35.4027 182.836 34.7887 180.418 33.5031C178.003 32.2176 175.973 30.3071 174.537 27.9693C173.101 25.6314 172.313 22.9509 172.253 20.2046C172.193 17.4581 172.864 14.7456 174.197 12.3469C175.53 9.9483 177.476 7.95063 179.833 6.56027C182.191 5.16991 184.876 4.43729 187.61 4.43807Z" fill="#383A3F"/>
<path fill-rule="evenodd" clip-rule="evenodd" d="M111.086 24.458C108.848 34.5006 102.761 35.2316 101.454 36.9384C101.276 37.1282 101.14 37.3539 101.055 37.6007C100.971 37.8476 100.939 38.1097 100.964 38.3696C101.06 39.1564 101.716 39.7697 102.586 40.0052H94.3477V31.7066L94.3754 31.756C94.3669 31.7433 94.3598 31.7299 94.3538 31.7159C96.8202 36.4832 103.32 31.5206 102.913 24.458H111.086Z" fill="#383A3F"/>
<path fill-rule="evenodd" clip-rule="evenodd" d="M99.5098 6.29083C99.472 6.43392 99.4255 6.57459 99.371 6.71212C98.8284 8.02552 97.5458 8.74417 96.513 8.3167C95.4801 7.88923 95.0794 6.4581 95.619 5.1509L95.6374 5.11063C95.6865 4.99547 95.7431 4.8837 95.807 4.77609C96.6377 3.3881 97.8495 2.27056 99.2971 1.55762C99.8155 3.07945 99.8904 4.7184 99.5128 6.28155L99.5098 6.29083Z" fill="#383A3F"/>
<path fill-rule="evenodd" clip-rule="evenodd" d="M104.379 10.6486C104.286 10.7753 104.183 10.8945 104.071 11.0048C103.069 12.0084 101.605 12.1819 100.818 11.3889C100.032 10.5959 100.202 9.12762 101.201 8.12088L101.238 8.08991C101.326 8.00435 101.418 7.92369 101.515 7.84829C102.812 6.88491 104.358 6.31806 105.967 6.21582C105.866 7.81705 105.312 9.35599 104.37 10.6517L104.379 10.6486Z" fill="#383A3F"/>
<path fill-rule="evenodd" clip-rule="evenodd" d="M107.493 16.4003C107.366 16.4909 107.233 16.5726 107.095 16.645C105.84 17.3017 104.395 17.026 103.88 16.0254C103.365 15.0249 103.966 13.6805 105.221 13.0238L105.264 13.0052C105.373 12.9499 105.486 12.9003 105.6 12.8565C107.125 12.3297 108.77 12.2566 110.336 12.6459C109.76 14.1426 108.772 15.4437 107.487 16.3971L107.493 16.4003Z" fill="#383A3F"/>
<path fill-rule="evenodd" clip-rule="evenodd" d="M107.22 23.0268C107.063 23.0494 106.906 23.0607 106.748 23.0608C105.336 23.0608 104.18 22.1315 104.18 21.0225C104.18 19.9137 105.336 18.9844 106.748 18.9844H106.8C106.926 18.9858 107.052 18.9951 107.176 19.0122C108.769 19.2539 110.259 19.9508 111.468 21.0195C110.27 22.0788 108.796 22.7738 107.22 23.0237V23.0268Z" fill="#383A3F"/>
<path fill-rule="evenodd" clip-rule="evenodd" d="M89.2428 8.68273L90.1123 8.17781V0H91.6754V7.2702L92.548 6.76219V1.49617H94.108V29.2667L89.2428 32.101V39.9226H87.6797V1.51166H89.2428V8.68273ZM89.6653 26.4819L92.1317 25.0414C92.363 24.9051 92.5541 25.0693 92.5541 25.407V26.3673C92.5543 26.5337 92.5163 26.698 92.443 26.8473C92.3697 26.9967 92.2633 27.127 92.1317 27.2284L89.6653 28.6657C89.431 28.802 89.2397 28.6379 89.2397 28.3033V27.3399C89.2395 27.1736 89.2778 27.0093 89.3517 26.8604C89.4255 26.7114 89.5328 26.5819 89.6653 26.4819ZM89.6653 21.6093L92.1317 20.1719C92.363 20.0356 92.5541 20.1999 92.5541 20.5343V21.5009C92.5537 21.6669 92.5155 21.8304 92.4423 21.9793C92.369 22.128 92.2628 22.2579 92.1317 22.3589L89.6653 23.7961C89.431 23.9324 89.2397 23.7683 89.2397 23.4337V22.4704C89.2395 22.3036 89.2778 22.139 89.3517 21.9896C89.4255 21.8401 89.5328 21.7099 89.6653 21.6093ZM89.6653 16.7397L92.1317 15.3024C92.363 15.1661 92.5541 15.3303 92.5541 15.668V16.6281C92.5543 16.7947 92.5163 16.959 92.443 17.1083C92.3697 17.2577 92.2633 17.388 92.1317 17.4893L89.6653 18.9267C89.431 19.063 89.2397 18.8989 89.2397 18.5643V17.6009C89.2395 17.434 89.2778 17.2694 89.3517 17.12C89.4255 16.9706 89.5328 16.8404 89.6653 16.7397ZM89.6653 11.8702L92.1317 10.4329C92.363 10.2966 92.5541 10.4608 92.5541 10.7984V11.7587C92.5543 11.9252 92.5163 12.0895 92.443 12.2388C92.3697 12.3881 92.2633 12.5185 92.1317 12.6198L89.6653 14.0572C89.431 14.1935 89.2397 14.0293 89.2397 13.6916V12.7314C89.2395 12.5645 89.2778 12.3999 89.3517 12.2505C89.4255 12.1011 89.5328 11.9709 89.6653 11.8702Z" fill="#383A3F"/>
<path fill-rule="evenodd" clip-rule="evenodd" d="M71.2461 10.2523L73.6448 12.3525L78.7257 5.8877L71.2461 10.2523Z" fill="#383A3F"/>
<path fill-rule="evenodd" clip-rule="evenodd" d="M85.1683 5.49021H85.1931L85.3195 5.55836H85.2979L85.1931 5.4995H85.1683H85.1499H85.1345L85.0975 5.46233L85.0666 5.43754L85.0389 5.41896L85.0112 5.40037H84.9958H84.9803L84.9526 5.37869H84.9372C84.6283 5.10867 84.4156 4.74476 84.3313 4.34221C84.2471 3.93967 84.2958 3.52049 84.4702 3.14831C84.6445 2.77616 84.9351 2.47133 85.2976 2.28013C85.6601 2.08894 86.0748 2.02183 86.4788 2.08899V0.679553C86.3708 0.679553 86.2629 0.664063 86.1551 0.664063C85.3961 0.663552 84.6606 0.928182 84.0745 1.41262C83.4885 1.89706 83.0883 2.57117 82.9425 3.31947C82.7968 4.06779 82.9145 4.84373 83.2756 5.51439C83.6366 6.18506 84.2186 6.70871 84.9218 6.99567V11.1713H80.5098V13.5162H84.9063V29.8409C84.4469 30.2311 79.4338 29.8254 77.2386 28.388C76.2243 27.5207 75.8913 26.6193 78.8789 24.2403H69.1641L71.1218 33.4124C73.7055 28.5553 74.8832 31.8636 77.7598 34.4533C80.6362 37.0429 82.3412 38.4616 86.4695 39.6697V5.73493H85.8961H85.8591H85.8282H85.7973L85.6833 5.70704L85.6155 5.68846H85.5939H85.5723H85.5538H85.5322H85.5045H85.4859L85.3812 5.64509H85.3626L85.1931 5.55216L85.1683 5.49021Z" fill="#383A3F"/>
</g>
</g>
<defs>
<clipPath id="clip0_1281_21609">
<rect width="230" height="40" fill="white" transform="translate(0.613281)"/>
</clipPath>
</defs>
</svg>

<svg width="231" height="40" viewBox="0 0 231 40" fill="none" xmlns="http://www.w3.org/2000/svg"><g clip-path="url(#clip0_1281_21609)"><mask id="mask0_1281_21609" style="mask-type:luminance" maskUnits="userSpaceOnUse" x="0" y="0" width="231" height="40"><path d="M230.429 0H.799v40h229.63V0z" fill="#fff"/></mask><g mask="url(#mask0_1281_21609)" fill-rule="evenodd" clip-rule="evenodd" fill="#383A3F"><path d="M.799 4.438h4.208v13.339H8.83a15.45 15.45 0 015.52-9.875 15.312 15.312 0 0110.742-3.43 15.332 15.332 0 0110.18 4.862 15.473 15.473 0 014.136 10.535c0 3.911-1.478 7.677-4.135 10.535a15.332 15.332 0 01-10.18 4.862 15.312 15.312 0 01-10.743-3.43 15.45 15.45 0 01-5.52-9.874H5.007V35.3H.8V4.438zm23.253 3.575c2.334 0 4.616.695 6.556 1.998a11.846 11.846 0 014.347 5.322 11.91 11.91 0 01.672 6.851 11.876 11.876 0 01-3.23 6.071 11.785 11.785 0 01-6.043 3.246 11.76 11.76 0 01-6.819-.675 11.81 11.81 0 01-5.296-4.368 11.898 11.898 0 01-1.99-6.587 11.91 11.91 0 013.464-8.378 11.799 11.799 0 018.339-3.48zm39.056-3.575v4.228H47.912v26.64h-4.209V4.438h19.405zm142.85 0h4.208v22.706l16.054-22.7h4.211v30.862h-4.205V12.585l-16.056 22.7h-4.212V4.438zm-59.085 0l4.205.053 8.876 18.555 7.597-18.608h4.215l-10.43 25.543c-1.64 4.377-6.23 5.356-10.878 4.647v-3.996c3.216.83 9.182.207 6.578-4.9L146.861 4.437h.012zm-12.477 0h.034a10.246 10.246 0 013.992.735 10.286 10.286 0 013.4 2.229 10.372 10.372 0 010 14.749c-.975.962-2.13 1.72-3.4 2.229a10.245 10.245 0 01-3.992.735h-8.155V35.3h-4.209V4.438h12.33zm.034 3.373a6.92 6.92 0 014.905 2.042 6.986 6.986 0 012.032 4.928 6.986 6.986 0 01-2.032 4.928 6.92 6.92 0 01-4.905 2.042h-8.161V7.81h8.161zm53.18-3.373c2.848.005 5.638.803 8.061 2.307a15.436 15.436 0 015.662 6.212h-4.15a11.802 11.802 0 00-5.89-4.345 11.75 11.75 0 00-7.309-.026 11.803 11.803 0 00-5.921 4.303 11.897 11.897 0 000 13.963 11.803 11.803 0 005.921 4.303 11.75 11.75 0 007.309-.025 11.803 11.803 0 005.89-4.345h4.15a15.41 15.41 0 01-5.376 6.031 15.303 15.303 0 01-15.539.687 15.393 15.393 0 01-5.881-5.534 15.482 15.482 0 01-2.284-7.764 15.481 15.481 0 011.944-7.858 15.405 15.405 0 015.636-5.787 15.302 15.302 0 017.777-2.122zm-76.524 20.02c-2.238 10.043-8.325 10.774-9.632 12.48a1.847 1.847 0 00-.49 1.432c.096.786.752 1.4 1.622 1.635h-8.238v-8.298l.027.049a.246.246 0 01-.021-.04c2.466 4.767 8.966-.195 8.559-7.258h8.173zM99.51 6.29a3.73 3.73 0 01-.139.422c-.543 1.314-1.825 2.032-2.858 1.605-1.033-.428-1.434-1.859-.894-3.166l.018-.04c.05-.116.106-.227.17-.335a8.387 8.387 0 013.49-3.218 8.479 8.479 0 01.216 4.724l-.003.009zm4.869 4.359a2.95 2.95 0 01-.308.356c-1.002 1.003-2.466 1.177-3.253.384-.786-.793-.616-2.261.383-3.268l.037-.031a3.32 3.32 0 01.277-.242 8.355 8.355 0 014.452-1.632 8.448 8.448 0 01-1.597 4.436l.009-.003zm3.114 5.751c-.127.09-.26.173-.398.245-1.255.657-2.7.381-3.215-.62-.515-1 .086-2.344 1.341-3.001l.043-.019a3.73 3.73 0 01.336-.149 8.341 8.341 0 014.736-.21 8.448 8.448 0 01-2.849 3.751l.006.003zm-.273 6.627a3.32 3.32 0 01-.472.034c-1.412 0-2.568-.93-2.568-2.038 0-1.11 1.156-2.039 2.568-2.039h.052c.126.002.252.011.376.028a8.378 8.378 0 014.292 2.008 8.4 8.4 0 01-4.248 2.004v.003zM89.243 8.683l.87-.505V0h1.562v7.27l.873-.508V1.496h1.56v27.77l-4.865 2.835v7.822H87.68V1.512h1.563v7.17zm.422 17.799l2.467-1.44c.231-.137.422.027.422.365v.96a1.086 1.086 0 01-.422.861l-2.467 1.438c-.234.136-.425-.028-.425-.363v-.963a1.076 1.076 0 01.425-.858zm0-4.873l2.467-1.437c.231-.136.422.028.422.362v.967a1.09 1.09 0 01-.422.858l-2.467 1.437c-.234.136-.425-.028-.425-.362v-.964a1.082 1.082 0 01.425-.86zm0-4.87l2.467-1.437c.231-.136.422.028.422.366v.96a1.087 1.087 0 01-.422.861l-2.467 1.438c-.234.136-.425-.028-.425-.363v-.963a1.082 1.082 0 01.425-.861zm0-4.869l2.467-1.437c.231-.136.422.028.422.365v.96a1.086 1.086 0 01-.422.862l-2.467 1.437c-.234.136-.425-.028-.425-.365v-.96a1.082 1.082 0 01.425-.862zm-18.419-1.618l2.399 2.1 5.08-6.464-7.479 4.364zM85.168 5.49h.025l.127.068h-.022l-.105-.058h-.059l-.037-.038-.03-.024-.028-.019-.028-.019h-.031l-.027-.021h-.016a1.891 1.891 0 01-.467-2.23 1.873 1.873 0 012.009-1.06V.679c-.108 0-.216-.015-.324-.015a3.26 3.26 0 00-2.08.749 3.3 3.3 0 00-.799 4.102c.36.67.943 1.194 1.646 1.48v4.176H80.51v2.345h4.396v16.325c-.46.39-5.472-.016-7.667-1.453-1.015-.867-1.348-1.769 1.64-4.148h-9.715l1.958 9.172c2.584-4.857 3.761-1.548 6.638 1.041 2.876 2.59 4.581 4.009 8.71 5.217V5.735h-.673l-.114-.028-.068-.019h-.129l-.105-.043h-.018l-.17-.093-.025-.062z"/></g></g><defs><clipPath id="clip0_1281_21609"><path fill="#fff" transform="translate(.613)" d="M0 0h230v40H0z"/></clipPath></defs></svg>
